!!!SOCIAL_FUNCTION:	miscellaneous songs
!!!PDT:	1957
!!!OTL: No_1_Creation_or_Beginning_Song.krn
!!!LING_GROUP: Keresan
!!!LANG: Tone
!!!REG: Southwest
**kern
*staff1
=1-
*clefG2
*k[b-]
*M2/4
4c/
8c/L
8d/J
=2
4c/
4c/
=3
4c/
8c/L
8d/J
=4
4c/
8g/L
8f/J
=5!|:
4d/
8d/L
8g/J
=6
4f/
8f/L
8d/J
=7
4c/
8c/L
8f/J
=8
4d/
4d/
=9
4d/
4d/
=10
4d/
8d/L
8f/J
=11
4c/
4c/
=12
4A/
8c/L
8d/J
=13
8c/
8r
4c/
=14
4A/
8c/L
8d/J
=15
*M3/4
4c/
4c/
8r
8c/
=16
*M2/4
8c/L
8c/J
8B-/L
8B-/J
=17
8d/L
8d/J
4c/
=18
8d/L
8d/J
4c/
=19
8d/L
8d/J
8d/L
8d/J
=20
8d/L
8d/J
8d/L
8f/J
=21
4c/
4c/
=22
4A/
8c/L
8d/J
=23
4c/
4c/
=24
8A/
8r
8c/L
8d/J
=25
*M3/4
4c/
4c/
8r
8c/
=26
*M2/4
8c/L
8c/J
8g/L
8f/J
=27:|!
4c/
4c/
=28
8c/L
8d/J
4c/
=29
4c/
4c/
=30
4c/
4r
==
*-
